X:42
T: On and On
C: Bill Monroe
S: MandoZine TablEdit Archives
S: OnandOn-G-Monroe.tef
Z: TablEdited by Mike Stangeland for MandoZine
L: 1/8
Q: 440
M: 4/4
K: G
 z2 G2 GB c2 | "G"[gd][gd] [gd][gd] [gd][gd] [g2d2] | gb gd cB G=F | "C"CE GA ^A=A GE |
 "G"G2 G,2 GG, zC/D/ | G,2 G,2 G,^A, B,D | G^A Bd gd ^c=A | "D"[AFD][AFD] z[AFD] [A2F2D2] [A2F2D2] |
 [F2C2] [F2C2] CD zd | "G"G2 G,2 G,C zD | G2 G2 G,2 G,2 | "C"CE GA ^AG =A^A | GG zG D2 (3^C=C^A, |
 G,2 G,2 [g2B2D2G,2] [g2B2D2G,2] | "D"gd c^A BG FD | "G"G,G, zG E=F DB, | G,8 |
